icons/square/48/steam_icon_219890.svg

<svg xmlns="http://www.w3.org/2000/svg" viewBox="0 0 48 48">
  <defs>
    <linearGradient id="a" x2="0" y1="1" y2="47" gradientUnits="userSpaceOnUse">
      <stop offset="0" stop-color="#444"/>
      <stop offset="1" stop-color="#3a3a3a"/>
    </linearGradient>
  </defs>
  <path opacity=".02" d="M1 43v.25c0 2.216 1.784 4 4 4h38c2.216 0 4-1.784 4-4V43c0 2.216-1.784 4-4 4H5c-2.216 0-4-1.784-4-4zm0 .5v.5c0 2.216 1.784 4 4 4h38c2.216 0 4-1.784 4-4v-.5c0 2.216-1.784 4-4 4H5c-2.216 0-4-1.784-4-4z"/>
  <path opacity=".05" d="M1 43.25v.25c0 2.216 1.784 4 4 4h38c2.216 0 4-1.784 4-4v-.25c0 2.216-1.784 4-4 4H5c-2.216 0-4-1.784-4-4z"/>
  <path opacity=".1" d="M1 43v.25c0 2.216 1.784 4 4 4h38c2.216 0 4-1.784 4-4V43c0 2.216-1.784 4-4 4H5c-2.216 0-4-1.784-4-4z"/>
  <rect fill="url(#a)" rx="4" height="46" width="46" y="1" x="1"/>
  <path d="M23 10l-.658 1.115A13.5 13.5 0 0 0 10.5 24.5a13.5 13.5 0 0 0 .975 5.006L10 32v2h4.422A13.5 13.5 0 0 0 24 38a13.5 13.5 0 0 0 9.584-4H38v-2l-1.47-2.488a13.5 13.5 0 0 0 .97-5.012 13.5 13.5 0 0 0-.646-4.11L34.18 21.97a10.5 10.5 0 0 1 .32 2.531 10.5 10.5 0 0 1-.105 1.398l-6.6-11.17a10.5 10.5 0 0 1 3.33 2.077l2.666-1.576a13.5 13.5 0 0 0-8.135-4.118L25 10h-2zm-2.78 4.705l-6.615 11.193A10.5 10.5 0 0 1 13.5 24.5a10.5 10.5 0 0 1 6.72-9.795zM24 16l8 14H16l8-14zm0 5l-3 2v3l3 2 3-2v-3l-3-2zm-4.445 13h8.89A10.5 10.5 0 0 1 24 35a10.5 10.5 0 0 1-4.445-1z" opacity=".1"/>
  <path d="M24 10a13.5 13.5 0 0 0-13.5 13.5A13.5 13.5 0 0 0 24 37a13.5 13.5 0 0 0 13.5-13.5 13.5 13.5 0 0 0-.646-4.11L34.18 20.97a10.5 10.5 0 0 1 .32 2.531A10.5 10.5 0 0 1 24 34a10.5 10.5 0 0 1-10.5-10.5A10.5 10.5 0 0 1 24 13a10.5 10.5 0 0 1 7.125 2.805l2.666-1.576A13.5 13.5 0 0 0 24 10z" fill="#ccc"/>
  <path d="M21 22v3l3 2 3-2v-3z" fill="#ccc"/>
  <path d="M21 22l3-2 3 2-3 2z" fill="#f9f9f9"/>
  <path d="M23 9L10 31v2h28v-2L25 9zm1 6l8 14H16z" fill="#ececec"/>
  <path d="M10.5 23.5A13.5 13.5 0 0 0 24 37v-3a10.5 10.5 0 0 1-10.5-10.5z" fill="#ccc"/>
  <path opacity=".1" d="M1 39v4c0 2.216 1.784 4 4 4h38c2.216 0 4-1.784 4-4v-4c0 2.216-1.784 4-4 4H5c-2.216 0-4-1.784-4-4z"/>
</svg>

<svg xmlns="http://www.w3.org/2000/svg" viewBox="0 0 48 48">
 <defs>
  <linearGradient id="bg" x1="0" x2="0" y1="1" y2="47" gradientUnits="userSpaceOnUse" >
   <stop offset="0" style="stop-color:#444"/>
   <stop offset="1" style="stop-color:#3a3a3a"/>
  </linearGradient>
 </defs>
 <path opacity=".02" d="m1 43v0.25c0 2.216 1.784 4 4 4h38c2.216 0 4-1.784 4-4v-0.25c0 2.216-1.784 4-4 4h-38c-2.216 0-4-1.784-4-4zm0 0.5v0.5c0 2.216 1.784 4 4 4h38c2.216 0 4-1.784 4-4v-0.5c0 2.216-1.784 4-4 4h-38c-2.216 0-4-1.784-4-4z"/>
 <path opacity=".05" d="m1 43.25v0.25c0 2.216 1.784 4 4 4h38c2.216 0 4-1.784 4-4v-0.25c0 2.216-1.784 4-4 4h-38c-2.216 0-4-1.784-4-4z"/>
 <path opacity=".1" d="m1 43v0.25c0 2.216 1.784 4 4 4h38c2.216 0 4-1.784 4-4v-0.25c0 2.216-1.784 4-4 4h-38c-2.216 0-4-1.784-4-4z"/>
 <rect fill="url(#bg)" rx="4" height="46" width="46" y="1" x="1"/>
 <path d="M 23 10 L 22.341797 11.115234 A 13.5 13.5 0 0 0 10.5 24.5 A 13.5 13.5 0 0 0 11.474609 29.505859 L 10 32 L 10 34 L 14.421875 34 A 13.5 13.5 0 0 0 24 38 A 13.5 13.5 0 0 0 33.583984 34 L 38 34 L 38 32 L 36.529297 29.511719 A 13.5 13.5 0 0 0 37.5 24.5 A 13.5 13.5 0 0 0 36.853516 20.390625 L 34.179688 21.96875 A 10.5 10.5 0 0 1 34.5 24.5 A 10.5 10.5 0 0 1 34.394531 25.898438 L 27.794922 14.728516 A 10.5 10.5 0 0 1 31.125 16.804688 L 33.791016 15.228516 A 13.5 13.5 0 0 0 25.65625 11.111328 L 25 10 L 23 10 z M 20.220703 14.705078 L 13.605469 25.898438 A 10.5 10.5 0 0 1 13.5 24.5 A 10.5 10.5 0 0 1 20.220703 14.705078 z M 24 16 L 32 30 L 16 30 L 24 16 z M 24 21 L 21 23 L 21 26 L 24 28 L 27 26 L 27 23 L 24 21 z M 19.554688 34 L 28.445312 34 A 10.5 10.5 0 0 1 24 35 A 10.5 10.5 0 0 1 19.554688 34 z" style="opacity:0.1"/>
 <g transform="translate(0 -1)">
  <path d="M 24 11 A 13.5 13.5 0 0 0 10.5 24.5 A 13.5 13.5 0 0 0 24 38 A 13.5 13.5 0 0 0 37.5 24.5 A 13.5 13.5 0 0 0 36.853516 20.390625 L 34.179688 21.96875 A 10.5 10.5 0 0 1 34.5 24.5 A 10.5 10.5 0 0 1 24 35 A 10.5 10.5 0 0 1 13.5 24.5 A 10.5 10.5 0 0 1 24 14 A 10.5 10.5 0 0 1 31.125 16.804688 L 33.791016 15.228516 A 13.5 13.5 0 0 0 24 11 z" style="fill:#ccc"/>
  <path d="m 21 23 0 3 3 2 3 -2 0 -3 z" style="fill:#ccc"/>
  <path d="m 21 23 3 -2 3 2 -3 2 z" style="fill:#f9f9f9"/>
  <path d="m 23,10 -13,22 0,2 28,0 0,-2 -13,-22 z m 1,6 8,14 -16,0 z" style="fill:#ececec"/>
  <path d="m 10.5 24.5 a 13.5 13.5 0 0 0 13.5 13.5 v -3 a 10.5 10.5 0 0 1 -10.5 -10.5 z" style="fill:#ccc"/>
 </g>
 <path opacity=".1" d="m1 39v4c0 2.216 1.784 4 4 4h38c2.216 0 4-1.784 4-4v-4c0 2.216-1.784 4-4 4h-38c-2.216 0-4-1.784-4-4z"/>
</svg>
